public/images/cafe_jefe_text.svg

<svg width="450" height="92" xmlns="http://www.w3.org/2000/svg">
 <g>
  <title>Layer 1</title>
  <path id="svg_14" d="m0,0l450,0l0,92l-450,0l0,-92z" fill-opacity="0"/>
  <path stroke="#ffffff" stroke-width="2" id="svg_15" d="m26.33,4.41c6.86,-0.7 13.87,-0.93 20.59,0.83c0.09,4.56 0.2,9.13 0.05,13.7c-6.46,-3.16 -14.47,-5.9 -21.28,-2.25c-7.37,3.59 -9.52,12.5 -8.42,20.04c2.53,19.42 19.65,35.22 38.65,38.44c0.16,3.95 0.17,7.9 0.04,11.85c-6.07,-0.31 -11.72,-3.31 -17.19,-5.75999c-14.46,-7.38 -27.01,-19.89 -31.12,-35.95c-1.25,-7.3 -2.96,-15.05 -0.65,-22.32c2.41,-9.1 10.26,-16.34996 19.33,-18.57996l0,-0.00001l0,-0.00001l0,-0.00001l0,-0.00001z" fill="#901514"/>
  <path stroke="#ffffff" stroke-width="2" id="svg_16" fill-rule="evenodd" d="m102.34,5.49c2.52,-0.4 5.06001,-0.56 7.61,-0.48c-1.82,16.6 -0.59,33.33 -0.98,49.99c-0.41,5.04 0.61,9.98 1.06,14.96c-4.34,0.03 -8.69,0.21 -13.03,-0.02c0.17,-5.44 3.12,-12.23 -0.22,-16.8c-6.54,-0.25 -13.07,-0.26 -19.61,-0.04c-3.89,4.67 -2.06,11.35 -1.1,16.85c-4.64,0.05 -9.29,0.17001 -13.93,0.03001c2.17,-5.39001 2.33,-11.28 2.94,-16.98c3.66,-14.63 9.65,-29.45 21.65,-39.28c4.77,-3.25 9.63,-7.50996 15.60999,-8.22996l0,-0.00001l0,-0.00001l0,-0.00001l0,-0.00001zm-7.1,12.73c0.68,-0.07 2.03,-0.2 2.71,-0.27c0.01,7.98 0.26,15.97 -0.02,23.95c-5.98,-0.12 -11.98,1.44 -17.92,0.05c-0.84,-3.74 2.41,-6.31 3.46,-9.58c3.73,-4.88 7.2,-10.01 11.77,-14.15z" fill="#901514"/>
  <path stroke="#ffffff" stroke-width="2" id="svg_17" d="m123.93,5.05c14.01,-0.07 28.03001,-0.13 42.04,0c0.02,4.35 0.2,8.7 -0.04001,13.05c-9.09,-4.35 -20.07999,-1.23 -29.93999,-2.05c-0.03,1.46 -0.34001,3.34 1.67999,3.36c11,1.38 22.22,0.13 33.3,0.65c0.12,3.99 0.11,7.97 -0.00999,11.95c-8.73001,-0.45 -17.43001,-3.11 -26.21001,-1.63c-2.94,0.01 -5.97,-0.81 -8.63,0.82c-0.25,14.93 -0.12999,29.87 -0.08,44.81c-0.75,3.93 1.85001,7.18 2.04001,10.93999c-4.7,0.03001 -9.39,0.22 -14.08,-0.02c2.06,-15.88 0.54,-31.96 1,-47.93c-0.52,-11.29 1.18,-22.81 -1.07,-33.95004l0,0.00001l0,0.00001l0,0.00001l0,0.00001z" fill="#901514"/>
  <path stroke="#ffffff" stroke-width="2" id="svg_18" d="m179.92999,5.05c14.35001,-0.05 28.70001,-0.16 43.04001,0.01c0.11,3.99 0.11,7.97 -0.00999,11.96c-9.95001,-1.19 -19.97,-1.25 -29.99001,-0.98c0.00999,1.4 -0.2,3.04 1.25,3.82c10.89,0.44 21.8,-0.13 32.69,0.21c0.23,3.99 0.81999,7.99 -0.04001,11.94c-8.5,-1.55 -17.37999,-3.37 -25.95999,-1.28c-2.58,0.38 -6.08,-2.21 -7.77,0.5c-0.37,8.16 0.2,16.35 -0.62,24.49c-0.24002,1.11 0.31999,2.13 0.62999,3.17c9.98001,0.07 20.31001,1.15 29.8,-1.96c0.01999,4.34 0.23,8.7 -0.00999,13.04c-14.33,0.02 -28.66,0.14 -42.99001,-0.04c0.76999,-3.3 2.53,-6.37 2.01001,-9.92c0.09,-15.01 0.07999,-30.01 0,-45.02c1.42,-3.84 -2.24002,-6.39 -2.03001,-9.94z" fill="#901514"/>
  <path stroke="#ffffff" stroke-width="2" id="svg_19" d="m262.01001,5.05c4.31998,-0.04 8.66,-0.22 12.98999,0.01c-3.39999,18.8 2.57999,38.6 -4.10001,56.87c-5.19998,10.96 -15.04999,21.72 -27.70999,22.95c-2.45,-2.75999 -4.21001,-6.25 -5.3,-9.78c11.2,-0.22 19.2,-9.46 23.06001,-19.1c2.87997,-7.37 1.94,-15.29 2.06,-23c-0.23001,-9.32 0.69998,-18.73 -1,-27.95z" fill="#901514"/>
  <path stroke="#ffffff" stroke-width="2" id="svg_20" d="m285.20999,4.97c14.25,0.11 28.51001,-0.11 42.76001,0.09c0.01001,4.33 0.20001,8.66 -0.03,12.99c-9.54999,-3.08 -19.94,-1.97 -29.98001,-2c0.02002,1.39 -0.17999,3.02 1.26001,3.81c10.88998,0.44 21.79001,-0.12 32.67999,0.21c-0.09,4.35 1,8.69 -0.04001,12.99c-10.56,-4.25 -22.53,-1.25 -33.62997,-1.92c-0.27002,0.27 -0.82001,0.82 -1.10001,1.09c-0.02002,7.26 -0.79001,14.68 0.59,21.85c0.37,1.65 -1.67999,3.81 0.54001,4.72c6.84,1.71 13.81998,-0.42 20.75,0.22c3.16,0.3 5.94998,-1.4 8.92999,-2.1c0.01999,4.34 0.23999,8.7 0,13.05c-14.31,0.02 -28.62,0.14 -42.92999,-0.03c3.37,-12.03 1.53998,-24.64 2,-36.94c-0.26001,-9.34 0.94998,-18.93 -1.80002,-28.03z" fill="#901514"/>
  <path stroke="#ffffff" stroke-width="2" id="svg_21" d="m341.92001,5.05c14.01999,-0.07 28.03998,-0.12 42.04999,0c0.01001,4.35 0.20001,8.7 -0.04001,13.05c-9.07999,-4.35 -20.06,-1.22 -29.89999,-2.05c-0.07999,1.3 -0.07999,2.61 0,3.92c11.23999,0.35 22.51999,-0.42 33.75,0.2c2.78,3.12 1.17001,8.84 0.10001,12.69c-10.53,-4.27 -22.73999,-0.75 -33.85001,-1.82c-0.06,16.66 -0.06,33.32 -0.01001,49.98c0.09,2.13 1.70001,3.83 2.11002,5.91c-4.69,0.04 -9.36002,0.25 -14.04001,0c2,-17.21 0.39999,-34.63 0.91,-51.93c-0.54999,-9.96 1.25,-20.17 -1.07999,-29.95z" fill="#901514"/>
  <path stroke="#ffffff" stroke-width="2" id="svg_22" d="m397.97,5.05c13.92999,0 27.88998,-0.27 41.82001,0.1c2.88998,3.24 0.57999,8.8 1.16,12.9c-9.47,-3.5 -19.85001,-1.76 -29.72,-1.87c-1.92001,0.75 -0.42001,2.41 -0.02002,3.69c11.24002,0.42 22.51001,-0.13 33.76001,0.2c0.01999,4.26 0.16,8.54 0.01001,12.8c-10.71002,-3.92 -22.61002,-1.1 -33.75,-1.73c-0.27002,0.27 -0.82001,0.82 -1.09,1.09c-0.23001,8.52 -0.30002,17.06 -0.01001,25.58c4.20999,3.11 10.91,0.14 15.88,1.23c4.76999,0.38 9.44,-0.25 13.81,-2.01c1.81,4.04 0.95999,8.67 1.17999,12.94c-14.34,0.02 -28.67999,0.14 -43,-0.03c2.91,-17.51 1.85999,-35.29 1.98999,-52.95c0.62,-4.18 -1.16,-7.98 -2.01999,-11.94z" fill="#901514"/>
  <path stroke="#ffffff" stroke-width="2" id="svg_23" d="m61.93,77.05c16.02,-0.05 32.06,-0.16 48.08,0.02c0.36,3.38 -0.71,6.58 -1.24001,9.85c-15.21999,0.16 -30.43999,0.11 -45.66,0.03c0.49,-3.43 -0.7,-6.6 -1.18,-9.89999l0,0l0,0l0,0l0,0z" fill="#901514"/>
  <path stroke="#ffffff" stroke-width="2" id="svg_24" d="m181.2,77.15c13.53,-0.26 27.08,-0.26 40.61,-0.02c2.77,2.29 0.74001,6.68 1.14,9.84c-13.59,0.03 -27.17999,0.15 -40.75999,-0.06c-0.17,-3.19 -3.45,-7.26 -0.99001,-9.76z" fill="#901514"/>
  <path stroke="#ffffff" stroke-width="2" id="svg_25" d="m286.23001,77.16c12.34998,-0.09 24.78998,-0.65 37.12,0.23c7.64999,-2.2 4.07999,5.76 4.59,9.58c-13.60001,0.03 -27.20001,0.16 -40.79001,-0.07c-0.69998,-3.11 -3.44,-7.31001 -0.91998,-9.74z" fill="#901514"/>
  <path stroke="#ffffff" stroke-width="2" id="svg_26" d="m399.23001,77.15c13.53998,0.41 27.38998,-1.66 40.75998,1.06c-0.17999,3.08 -1.34998,6.19 -3.16998,8.69c-12.21002,0.13 -24.44,0.27 -36.64001,-0.02c-1.63998,-2.36 -3.25,-7.43999 -0.94998,-9.73z" fill="#901514"/>
 </g>
</svg>

<?xml version="1.0" encoding="UTF-8" ?>
<!DOCTYPE svg PUBLIC "-//W3C//DTD SVG 1.1//EN" "http://www.w3.org/Graphics/SVG/1.1/DTD/svg11.dtd">
<svg width="450pt" height="92pt" viewBox="0 0 450 92" version="1.1" xmlns="http://www.w3.org/2000/svg">
<path fill="#040101" d=" M 0.00 0.00 L 450.00 0.00 L 450.00 92.00 L 0.00 92.00 L 0.00 0.00 Z" />
<path fill="#901514" d=" M 26.33 4.41 C 33.19 3.71 40.20 3.48 46.92 5.24 C 47.01 9.80 47.12 14.37 46.97 18.94 C 40.51 15.78 32.50 13.04 25.69 16.69 C 18.32 20.28 16.17 29.19 17.27 36.73 C 19.80 56.15 36.92 71.95 55.92 75.17 C 56.08 79.12 56.09 83.07 55.96 87.02 C 49.89 86.71 44.24 83.71 38.77 81.26 C 24.31 73.88 11.76 61.37 7.65 45.31 C 6.40 38.01 4.69 30.26 7.00 22.99 C 9.41 13.89 17.26 6.64 26.33 4.41 Z" />
<path fill="#901514" d=" M 102.34 5.49 C 104.86 5.09 107.40 4.93 109.95 5.01 C 108.13 21.61 109.36 38.34 108.97 55.00 C 108.56 60.04 109.58 64.98 110.03 69.96 C 105.69 69.99 101.34 70.17 97.00 69.94 C 97.17 64.50 100.12 57.71 96.78 53.14 C 90.24 52.89 83.71 52.88 77.17 53.10 C 73.28 57.77 75.11 64.45 76.07 69.95 C 71.43 70.00 66.78 70.12 62.14 69.98 C 64.31 64.59 64.47 58.70 65.08 53.00 C 68.74 38.37 74.73 23.55 86.73 13.72 C 91.50 10.47 96.36 6.21 102.34 5.49 Z" />
<path fill="#901514" d=" M 123.93 5.05 C 137.94 4.98 151.96 4.92 165.97 5.05 C 165.99 9.40 166.17 13.75 165.93 18.10 C 156.84 13.75 145.85 16.87 135.99 16.05 C 135.96 17.51 135.65 19.39 137.67 19.41 C 148.67 20.79 159.89 19.54 170.97 20.06 C 171.09 24.05 171.08 28.03 170.96 32.01 C 162.23 31.56 153.53 28.90 144.75 30.38 C 141.81 30.39 138.78 29.57 136.12 31.20 C 135.87 46.13 135.99 61.07 136.04 76.01 C 135.29 79.94 137.89 83.19 138.08 86.95 C 133.38 86.98 128.69 87.17 124.00 86.93 C 126.06 71.05 124.54 54.97 125.00 39.00 C 124.48 27.71 126.18 16.19 123.93 5.05 Z" />
<path fill="#901514" d=" M 179.93 5.05 C 194.28 5.00 208.63 4.89 222.97 5.06 C 223.08 9.05 223.08 13.03 222.96 17.02 C 213.01 15.83 202.99 15.77 192.97 16.04 C 192.98 17.44 192.77 19.08 194.22 19.86 C 205.11 20.30 216.02 19.73 226.91 20.07 C 227.14 24.06 227.73 28.06 226.87 32.01 C 218.37 30.46 209.49 28.64 200.91 30.73 C 198.33 31.11 194.83 28.52 193.14 31.23 C 192.77 39.39 193.34 47.58 192.52 55.72 C 192.28 56.83 192.84 57.85 193.15 58.89 C 203.13 58.96 213.46 60.04 222.95 56.93 C 222.97 61.27 223.18 65.63 222.94 69.97 C 208.61 69.99 194.28 70.11 179.95 69.93 C 180.72 66.63 182.48 63.56 181.96 60.01 C 182.05 45.00 182.04 30.00 181.96 14.99 C 183.38 11.15 179.72 8.60 179.93 5.05 Z" />
<path fill="#901514" d=" M 262.01 5.05 C 266.33 5.01 270.67 4.83 275.00 5.06 C 271.60 23.86 277.58 43.66 270.90 61.93 C 265.70 72.89 255.85 83.65 243.19 84.88 C 240.74 82.12 238.98 78.63 237.89 75.10 C 249.09 74.88 257.09 65.64 260.95 56.00 C 263.83 48.63 262.89 40.71 263.01 33.00 C 262.78 23.68 263.71 14.27 262.01 5.05 Z" />
<path fill="#901514" d=" M 285.21 4.97 C 299.46 5.08 313.72 4.86 327.97 5.06 C 327.98 9.39 328.17 13.72 327.94 18.05 C 318.39 14.97 308.00 16.08 297.96 16.05 C 297.98 17.44 297.78 19.07 299.22 19.86 C 310.11 20.30 321.01 19.74 331.90 20.07 C 331.81 24.42 332.90 28.76 331.86 33.06 C 321.30 28.81 309.33 31.81 298.23 31.14 C 297.96 31.41 297.41 31.96 297.13 32.23 C 297.11 39.49 296.34 46.91 297.72 54.08 C 298.09 55.73 296.04 57.89 298.26 58.80 C 305.10 60.51 312.08 58.38 319.01 59.02 C 322.17 59.32 324.96 57.62 327.94 56.92 C 327.96 61.26 328.18 65.62 327.94 69.97 C 313.63 69.99 299.32 70.11 285.01 69.94 C 288.38 57.91 286.55 45.30 287.01 33.00 C 286.75 23.66 287.96 14.07 285.21 4.97 Z" />
<path fill="#901514" d=" M 341.92 5.05 C 355.94 4.98 369.96 4.93 383.97 5.05 C 383.98 9.40 384.17 13.75 383.93 18.10 C 374.85 13.75 363.87 16.88 354.03 16.05 C 353.95 17.35 353.95 18.66 354.03 19.97 C 365.27 20.32 376.55 19.55 387.78 20.17 C 390.56 23.29 388.95 29.01 387.88 32.86 C 377.35 28.59 365.14 32.11 354.03 31.04 C 353.97 47.70 353.97 64.36 354.02 81.02 C 354.11 83.15 355.72 84.85 356.13 86.93 C 351.44 86.97 346.77 87.18 342.09 86.93 C 344.09 69.72 342.49 52.30 343.00 35.00 C 342.45 25.04 344.25 14.83 341.92 5.05 Z" />
<path fill="#901514" d=" M 397.97 5.05 C 411.90 5.05 425.86 4.78 439.79 5.15 C 442.68 8.39 440.37 13.95 440.95 18.05 C 431.48 14.55 421.10 16.29 411.23 16.18 C 409.31 16.93 410.81 18.59 411.21 19.87 C 422.45 20.29 433.72 19.74 444.97 20.07 C 444.99 24.33 445.13 28.61 444.98 32.87 C 434.27 28.95 422.37 31.77 411.23 31.14 C 410.96 31.41 410.41 31.96 410.14 32.23 C 409.91 40.75 409.84 49.29 410.13 57.81 C 414.34 60.92 421.04 57.95 426.01 59.04 C 430.78 59.42 435.45 58.79 439.82 57.03 C 441.63 61.07 440.78 65.70 441.00 69.97 C 426.66 69.99 412.32 70.11 398.00 69.94 C 400.91 52.43 399.86 34.65 399.99 16.99 C 400.61 12.81 398.83 9.01 397.97 5.05 Z" />
<path fill="#040101" d=" M 95.24 18.22 C 95.92 18.15 97.27 18.02 97.95 17.95 C 97.96 25.93 98.21 33.92 97.93 41.90 C 91.95 41.78 85.95 43.34 80.01 41.95 C 79.17 38.21 82.42 35.64 83.47 32.37 C 87.20 27.49 90.67 22.36 95.24 18.22 Z" />
<path fill="#901514" d=" M 61.93 77.05 C 77.95 77.00 93.99 76.89 110.01 77.07 C 110.37 80.45 109.30 83.65 108.77 86.92 C 93.55 87.08 78.33 87.03 63.11 86.95 C 63.60 83.52 62.41 80.35 61.93 77.05 Z" />
<path fill="#901514" d=" M 181.20 77.15 C 194.73 76.89 208.28 76.89 221.81 77.13 C 224.58 79.42 222.55 83.81 222.95 86.97 C 209.36 87.00 195.77 87.12 182.19 86.91 C 182.02 83.72 178.74 79.65 181.20 77.15 Z" />
<path fill="#901514" d=" M 286.23 77.16 C 298.58 77.07 311.02 76.51 323.35 77.39 C 331.00 75.19 327.43 83.15 327.94 86.97 C 314.34 87.00 300.74 87.13 287.15 86.90 C 286.45 83.79 283.71 79.59 286.23 77.16 Z" />
<path fill="#901514" d=" M 399.23 77.15 C 412.77 77.56 426.62 75.49 439.99 78.21 C 439.81 81.29 438.64 84.40 436.82 86.90 C 424.61 87.03 412.38 87.17 400.18 86.88 C 398.54 84.52 396.93 79.44 399.23 77.15 Z" />
</svg>
